icons/src/svg/fuel_gauge.svg

<svg width="32" height="32" viewBox="0 0 32 32" fill="none" xmlns="http://www.w3.org/2000/svg">
<path fill-rule="evenodd" clip-rule="evenodd" d="M6 2C5.44772 2 4.94772 2.22386 4.58579 2.58579C4.46259 2.70899 4.35538 2.84819 4.26756 3C4.09739 3.29417 4 3.63571 4 4V28C4 28.0173 4.00022 28.0345 4.00065 28.0516C4.00326 28.1546 4.01365 28.2556 4.03125 28.3541C4.19842 29.2898 5.01627 30 6 30H18C18.9665 30 19.7729 29.3144 19.9594 28.4031C19.986 28.2729 20 28.1381 20 28V16H21C21.5523 16 22 16.4477 22 17V27C22 28.6569 23.3431 30 25 30C26.6558 30 27.9982 28.6586 28 27.0032V27V9.40011C28 8.86836 27.7882 8.35849 27.4115 7.9832L23.7058 4.29155C23.3145 3.90177 22.6813 3.90297 22.2915 4.29424C21.9018 4.68551 21.903 5.31867 22.2942 5.70845L24 7.40772V11V11.0032C24.0018 12.1063 24.8965 13 26 13V27C26 27.5523 25.5523 28 25 28C24.4477 28 24 27.5523 24 27V17C24 15.3431 22.6569 14 21 14H20V4C20 2.89543 19.1046 2 18 2H6ZM18 10H6V4H18V10ZM6 28V12H18V28H6Z" fill="#0D0F13"/>
</svg>

<svg fill="none" xmlns="http://www.w3.org/2000/svg" viewBox="0 0 32 32">
  <path fill-rule="evenodd" clip-rule="evenodd" d="M6 2a1.994 1.994 0 0 0-1.732 1A1.99 1.99 0 0 0 4 4v24a2.053 2.053 0 0 0 .031.354A2 2 0 0 0 6 30h12a2 2 0 0 0 2-2V16h1a1 1 0 0 1 1 1v10a3 3 0 0 0 6 .003V9.4a2 2 0 0 0-.588-1.417l-3.706-3.691a1 1 0 0 0-1.412 1.416L24 7.408v3.595A2 2 0 0 0 26 13v14a1 1 0 1 1-2 0V17a3 3 0 0 0-3-3h-1V4a2 2 0 0 0-2-2H6Zm12 8H6V4h12v6ZM6 28V12h12v16H6Z" fill="currentColor"/>
</svg>
